X: 1
T: Squadron Leader Douglas Henderson
C: Nan Main
R: strathspey
Z: 2008 John Chambers <jc:trillian.mit.edu>
S: PDF from Steve Wyrick
M: C
L: 1/16
K: A
"E7"f2 \
| "A"e4 c3A "D"F6 f2 | "A"e3c Ac3 "E7"B6 e2 \
| "D"f4 a3f "A"e3c A2c2 | "E7"d3B GB3 | "A"A6 :|
|: B2 \
| "A"c4 e3E "D"F3A df3 | "A"e3c a3c "E7"B4 (3B2c2d2 \
| "A"e4 (3c2B2A2 "Bm"B3c df3 | "E7"E3A cB3 "A"A6 :|
